X: 1
T:Old Copperplate, The
M:4/4
L:1/8
%Z: Modified by Megan Ward
R:reel
K:Ador
A2 EA cAAe|aged cAFA|G2 DG BGBd|gedc BAGB|
A2 EA cAAe| aged cAGB|ABcd efge|aged cA A2 :|
|:ageg ~a3 b|aged cA A2| gfef ~g3f|gedc BGG2|
ageg ~a3 b|aged cAAG|ABcd efge|aged cA A2 :|
